public/img/AboutUs/AGC-about.svg

<svg width="203" height="70" viewBox="0 0 203 70" fill="none" xmlns="http://www.w3.org/2000/svg">
<path d="M67.7354 68.4102H53.1133L47.3008 53.2886H20.6904L15.1958 68.4102H0.937012L26.8662 1.83887H41.0796L67.7354 68.4102ZM42.9868 42.0723L33.814 17.3691L24.8228 42.0723H42.9868ZM105.88 43.9341V32.7178H134.852V59.2373C132.036 61.9619 127.949 64.3687 122.591 66.4575C117.263 68.5161 111.859 69.5454 106.379 69.5454C99.4165 69.5454 93.3467 68.0923 88.1699 65.186C82.9932 62.2495 79.103 58.0718 76.4995 52.6528C73.896 47.2036 72.5942 41.2852 72.5942 34.8975C72.5942 27.9648 74.0474 21.8042 76.9536 16.4155C79.8599 11.0269 84.1133 6.89453 89.7139 4.01855C93.9824 1.80859 99.2954 0.703613 105.653 0.703613C113.917 0.703613 120.366 2.44434 124.998 5.92578C129.66 9.37695 132.657 14.1602 133.989 20.2754L120.638 22.7729C119.7 19.5034 117.929 16.9302 115.325 15.0532C112.752 13.146 109.528 12.1924 105.653 12.1924C99.7798 12.1924 95.1025 14.0542 91.6211 17.7778C88.1699 21.5015 86.4443 27.0264 86.4443 34.3525C86.4443 42.2539 88.2002 48.1875 91.7119 52.1533C95.2236 56.0889 99.8252 58.0566 105.517 58.0566C108.332 58.0566 111.147 57.5117 113.963 56.4219C116.809 55.3018 119.246 53.9546 121.274 52.3804V43.9341H105.88ZM189.889 43.9341L202.921 48.0664C200.923 55.332 197.593 60.7358 192.931 64.2778C188.299 67.7896 182.411 69.5454 175.267 69.5454C166.427 69.5454 159.161 66.5332 153.47 60.5088C147.778 54.4541 144.933 46.1895 144.933 35.7148C144.933 24.6348 147.793 16.0371 153.515 9.92188C159.237 3.77637 166.76 0.703613 176.084 0.703613C184.228 0.703613 190.842 3.11035 195.928 7.92383C198.956 10.7695 201.226 14.8564 202.74 20.1846L189.435 23.3633C188.647 19.9121 186.998 17.1875 184.485 15.1895C182.002 13.1914 178.975 12.1924 175.403 12.1924C170.468 12.1924 166.457 13.9634 163.369 17.5054C160.312 21.0474 158.783 26.7842 158.783 34.7158C158.783 43.1318 160.296 49.126 163.324 52.6982C166.351 56.2705 170.287 58.0566 175.13 58.0566C178.703 58.0566 181.775 56.9214 184.349 54.6509C186.922 52.3804 188.769 48.8081 189.889 43.9341Z" fill="#414141" fill-opacity="0.2"/>
</svg>

<svg width="203" height="70" fill="none" xmlns="http://www.w3.org/2000/svg"><path d="M67.735 68.41H53.113L47.301 53.29H20.69L15.195 68.41H.937L26.867 1.84H41.08L67.735 68.41ZM42.987 42.072 33.814 17.37l-8.991 24.703h18.164Zm62.893 1.862V32.718h28.972v26.52c-2.816 2.724-6.903 5.13-12.261 7.22-5.328 2.058-10.732 3.087-16.212 3.087-6.963 0-13.032-1.453-18.21-4.359-5.176-2.937-9.066-7.114-11.67-12.533-2.603-5.45-3.905-11.368-3.905-17.755 0-6.933 1.453-13.094 4.36-18.483 2.906-5.388 7.16-9.52 12.76-12.396 4.268-2.21 9.581-3.315 15.939-3.315 8.264 0 14.713 1.74 19.345 5.222 4.662 3.451 7.659 8.234 8.991 14.35l-13.351 2.497c-.938-3.27-2.709-5.843-5.313-7.72-2.573-1.907-5.797-2.86-9.672-2.86-5.873 0-10.55 1.861-14.032 5.585-3.451 3.724-5.177 9.248-5.177 16.575 0 7.9 1.756 13.834 5.268 17.8 3.512 3.936 8.113 5.904 13.805 5.904 2.815 0 5.63-.545 8.446-1.635 2.846-1.12 5.283-2.467 7.311-4.042v-8.446H105.88Zm84.009 0 13.032 4.132c-1.998 7.266-5.328 12.67-9.99 16.212-4.632 3.512-10.52 5.267-17.664 5.267-8.84 0-16.106-3.012-21.797-9.036-5.692-6.055-8.537-14.32-8.537-24.794 0-11.08 2.86-19.678 8.582-25.793C159.237 3.776 166.76.704 176.084.704c8.144 0 14.758 2.406 19.844 7.22 3.028 2.846 5.298 6.932 6.812 12.26l-13.305 3.18c-.788-3.452-2.437-6.177-4.95-8.175-2.483-1.998-5.51-2.997-9.082-2.997-4.935 0-8.946 1.771-12.034 5.313-3.057 3.542-4.586 9.28-4.586 17.21 0 8.417 1.513 14.411 4.541 17.983 3.027 3.572 6.963 5.359 11.806 5.359 3.573 0 6.645-1.136 9.219-3.406 2.573-2.27 4.42-5.843 5.54-10.717Z" fill="#414141" fill-opacity=".2"/></svg>
